src/assets/dostanesieLogoQuestionMark.svg

<svg width="32" height="57" viewBox="0 0 32 57" fill="none" xmlns="http://www.w3.org/2000/svg">
<path d="M16.1716 52.4729C17.4068 52.4729 18.4082 51.4716 18.4082 50.2364C18.4082 49.0012 17.4068 47.9998 16.1716 47.9998C14.9364 47.9998 13.9351 49.0012 13.9351 50.2364C13.9351 51.4716 14.9364 52.4729 16.1716 52.4729Z" fill="#EE427B"/>
<path d="M16.1722 55.0535C18.8326 55.0535 20.9894 52.8968 20.9894 50.2363C20.9894 47.5759 18.8326 45.4191 16.1722 45.4191C13.5117 45.4191 11.355 47.5759 11.355 50.2363C11.355 52.8968 13.5117 55.0535 16.1722 55.0535Z" stroke="#042342" stroke-width="2.15052"/>
<path d="M6.59274 20.0458C6.0044 18.7419 5.67725 17.2961 5.67725 15.7744C5.67725 10.0079 10.3759 5.33319 16.1719 5.33319C21.9679 5.33319 26.6664 10.0079 26.6664 15.7744C26.6664 21.5408 21.9679 26.2157 16.1719 26.2157V35.6125" stroke="#EEA305" stroke-width="3.01074" stroke-linecap="round" stroke-linejoin="round"/>
<path d="M16.1869 18.4507C15.7117 18.4507 15.3266 18.8357 15.3266 19.3109C15.3266 19.7861 15.7117 20.1712 16.1869 20.1712V18.4507ZM1.72052 15.922C1.72052 15.4469 1.33544 15.0618 0.860258 15.0618C0.385079 15.0618 0 15.4469 0 15.922H1.72052ZM0 16.1103C0 16.5853 0.385079 16.9705 0.860258 16.9705C1.33544 16.9705 1.72052 16.5853 1.72052 16.1103H0ZM21.0465 30.4189L20.792 29.5972C20.4319 29.7088 20.1862 30.0421 20.1862 30.4189H21.0465ZM12.1876 26.4651C12.1876 25.9902 11.8022 25.6052 11.3273 25.6052C10.8521 25.6052 10.4671 25.9902 10.4671 26.4651H12.1876ZM18.691 15.922C18.691 17.3245 17.5639 18.4507 16.1869 18.4507V20.1712C18.5261 20.1712 20.4115 18.2628 20.4115 15.922H18.691ZM13.6555 16.1364C13.8789 15.269 14.2079 14.567 14.6302 14.0956C15.0303 13.649 15.524 13.3933 16.1869 13.3933V11.6729C14.9917 11.6729 14.0454 12.1702 13.349 12.9475C12.6748 13.6998 12.2509 14.6923 11.9894 15.7076L13.6555 16.1364ZM16.1869 13.3933C17.5639 13.3933 18.691 14.5195 18.691 15.922H20.4115C20.4115 13.5812 18.5261 11.6729 16.1869 11.6729V13.3933ZM11.9894 15.7076C11.3464 18.206 10.5751 19.9926 9.6339 21.1432C8.72752 22.251 7.65757 22.7809 6.28057 22.7809V24.5014C8.20703 24.5014 9.75402 23.7133 10.9656 22.2325C12.1423 20.7944 12.9902 18.7213 13.6555 16.1364L11.9894 15.7076ZM6.28057 22.7809C4.96846 22.7809 3.86793 22.1333 3.05969 20.9601C2.23912 19.7684 1.73445 18.0413 1.72078 16.0068L0.000540116 16.0183C0.0158252 18.3067 0.581105 20.394 1.64302 21.9359C2.71753 23.4961 4.31255 24.5014 6.28057 24.5014V22.7809ZM1.72078 16.0068C1.72051 15.9786 1.72052 15.9503 1.72052 15.922H0C0 15.9542 0.000271957 15.9863 0.000540116 16.0183L1.72078 16.0068ZM1.72052 16.1103C1.72052 16.0795 1.72051 16.0487 1.72078 16.0179L0.000261874 16.0072C0.000261874 16.0415 0 16.0759 0 16.1103H1.72052ZM1.72078 16.0179C1.77012 8.10735 8.14991 1.7204 16 1.7204V0C7.19177 0 0.0555027 7.16297 0.000261874 16.0072L1.72078 16.0179ZM16 1.7204C23.8804 1.7204 30.2795 8.15706 30.2795 16.1103H32C32 7.21872 24.8423 0 16 0V1.7204ZM30.2795 16.1103C30.2795 23.0273 25.3247 28.1924 20.792 29.5972L21.3012 31.2405C26.4877 29.6332 32 23.8484 32 16.1103H30.2795ZM20.1862 35.8789C20.1862 38.1132 18.3898 39.9139 16.1869 39.9139V41.6341C19.3517 41.6341 21.9067 39.0515 21.9067 35.8789H20.1862ZM16.1869 39.9139C13.984 39.9139 12.1876 38.1132 12.1876 35.8789H10.4671C10.4671 39.0515 13.0221 41.6341 16.1869 41.6341V39.9139ZM12.1876 35.8789V26.4651H10.4671V35.8789H12.1876ZM21.9067 35.8789V30.4189H20.1862V35.8789H21.9067Z" fill="#EE427B"/>
</svg>

<svg width="32" height="57" fill="none" xmlns="http://www.w3.org/2000/svg"><path d="M16.2 52.5a2.2 2.2 0 1 0 0-4.5 2.2 2.2 0 0 0 0 4.5Z" fill="#EE427B"/><path d="M16.2 55a4.8 4.8 0 1 0 0-9.6 4.8 4.8 0 0 0 0 9.7Z" stroke="#042342" stroke-width="2.2"/><path d="M6.6 20c-.6-1.3-1-2.7-1-4.2 0-5.8 4.8-10.5 10.6-10.5S26.7 10 26.7 15.8c0 5.7-4.7 10.4-10.5 10.4v9.4" stroke="#EEA305" stroke-width="3" stroke-linecap="round" stroke-linejoin="round"/><path d="M16.2 18.5a.9.9 0 1 0 0 1.7v-1.7ZM1.7 15.9A.9.9 0 1 0 0 16h1.7Zm-1.7.2a.9.9 0 0 0 1.7 0H0Zm21 14.3-.2-.8c-.4.1-.6.4-.6.8h.8Zm-8.8-4a.9.9 0 0 0-1.7 0h1.7ZM18.7 16c0 1.4-1.1 2.6-2.5 2.6v1.7c2.3 0 4.2-2 4.2-4.3h-1.7Zm-5 .2c.2-.8.5-1.5 1-2a2 2 0 0 1 1.5-.7v-1.7c-1.2 0-2.2.5-2.9 1.2-.6.8-1 1.8-1.3 2.8l1.7.4Zm2.5-2.7c1.4 0 2.5 1.1 2.5 2.5h1.7c0-2.3-1.9-4.2-4.2-4.2v1.7ZM12 15.7c-.7 2.5-1.4 4.3-2.4 5.4a4 4 0 0 1-3.3 1.7v1.7c2 0 3.5-.8 4.7-2.3a16 16 0 0 0 2.7-6l-1.7-.5Zm-5.7 7C5 22.8 3.9 22.2 3 21a9 9 0 0 1-1.4-5H0c0 2.3.6 4.4 1.6 6 1.1 1.5 2.7 2.5 4.7 2.5v-1.7ZM1.7 16H0h1.7Zm0 .1H0h1.7Zm0 0C1.7 8 8.1 1.6 16 1.6V0A16 16 0 0 0 0 16h1.7ZM16 1.6c7.9 0 14.3 6.5 14.3 14.4H32A16 16 0 0 0 16 0v1.7Zm14.3 14.4c0 7-5 12-9.5 13.5l.5 1.6a16.1 16.1 0 0 0 10.7-15h-1.7ZM20.2 36a4 4 0 0 1-4 4v1.7c3.2 0 5.7-2.5 5.7-5.7h-1.7Zm-4 4a4 4 0 0 1-4-4h-1.7c0 3.2 2.5 5.7 5.7 5.7V40Zm-4-4v-9.4h-1.7v9.4h1.7Zm9.7 0v-5.5h-1.7V36h1.7Z" fill="#EE427B"/></svg>
